public/future.svg

<?xml version="1.0" encoding="utf-8"?><!-- Uploaded to: SVG Repo, www.svgrepo.com, Generator: SVG Repo Mixer Tools -->
<svg width="800px" height="800px" viewBox="0 0 24 24" fill="none" xmlns="http://www.w3.org/2000/svg">
<path fill-rule="evenodd" clip-rule="evenodd" d="M1 12C1 6.47715 5.47715 2 11 2C16.3868 2 20.7788 6.25933 20.9919 11.5939L22.2929 10.2929C22.6834 9.90237 23.3166 9.90237 23.7071 10.2929C24.0976 10.6834 24.0976 11.3166 23.7071 11.7071L20.7071 14.7071C20.5196 14.8946 20.2652 15 20 15C19.7348 15 19.4804 14.8946 19.2929 14.7071L16.2929 11.7071C15.9024 11.3166 15.9024 10.6834 16.2929 10.2929C16.6834 9.90237 17.3166 9.90237 17.7071 10.2929L18.9889 11.5747C18.7678 7.35413 15.2756 4 11 4C6.58172 4 3 7.58172 3 12C3 16.4183 6.58172 20 11 20C13.5127 20 15.7544 18.8427 17.2226 17.0283C17.57 16.599 18.1997 16.5326 18.629 16.88C19.0584 17.2274 19.1248 17.8571 18.7774 18.2864C16.9457 20.5499 14.1418 22 11 22C5.47715 22 1 17.5228 1 12ZM12 6C12 5.44772 11.5523 5 11 5C10.4477 5 10 5.44772 10 6V12C10 12.2652 10.1054 12.5196 10.2929 12.7071L13.2929 15.7071C13.6834 16.0976 14.3166 16.0976 14.7071 15.7071C15.0976 15.3166 15.0976 14.6834 14.7071 14.2929L12 11.5858V6Z" fill="#000000"/>
</svg>

<svg width="800" height="800" viewBox="0 0 24 24" fill="none" xmlns="http://www.w3.org/2000/svg"><path fill-rule="evenodd" clip-rule="evenodd" d="M1 12C1 6.477 5.477 2 11 2c5.387 0 9.779 4.26 9.992 9.594l1.3-1.301a1 1 0 1 1 1.415 1.414l-3 3a1 1 0 0 1-1.414 0l-3-3a1 1 0 0 1 1.414-1.414l1.282 1.282a8 8 0 1 0-1.766 5.453 1 1 0 0 1 1.554 1.258A9.983 9.983 0 0 1 11 22C5.477 22 1 17.523 1 12Zm11-6a1 1 0 1 0-2 0v6a1 1 0 0 0 .293.707l3 3a1 1 0 0 0 1.414-1.414L12 11.586V6Z" fill="#000"/></svg>
